src/images/svg/be-square/twitter.svg

<svg width="32" height="33" viewBox="0 0 32 33" fill="none" xmlns="http://www.w3.org/2000/svg">
<path d="M25.016 4.00537H6.984C5.33598 4.00537 4 5.34135 4 6.98937V25.0214C4 26.6694 5.33598 28.0054 6.984 28.0054H25.016C26.664 28.0054 28 26.6694 28 25.0214V6.98937C28 5.34135 26.664 4.00537 25.016 4.00537Z" fill="white"/>
<path d="M24.6663 10.4087C24.0216 10.7028 23.3344 10.8983 22.6188 10.993C23.3552 10.5346 23.9176 9.81495 24.1818 8.94746C23.4947 9.37377 22.7366 9.67493 21.9286 9.84311C21.2761 9.12033 20.3471 8.67212 19.3325 8.67212C17.3659 8.67212 15.7813 10.3351 15.7813 12.3736C15.7813 12.6669 15.8059 12.9493 15.8645 13.2184C12.9102 13.0674 10.2965 11.5929 8.54012 9.3464C8.23353 9.90099 8.05404 10.5354 8.05404 11.2175C8.05404 12.4987 8.68726 13.6345 9.63246 14.2932C9.06087 14.2814 8.50084 14.1086 8.02631 13.8371V13.8778C8.02631 15.6761 9.25885 17.1694 10.8735 17.5136C10.5846 17.5965 10.2688 17.6356 9.94137 17.6356C9.71412 17.6356 9.48456 17.6223 9.26886 17.573C9.72952 19.0381 11.036 20.1152 12.589 20.1504C11.3804 21.136 9.84584 21.729 8.18346 21.729C7.89227 21.729 7.61341 21.7157 7.33301 21.6781C8.90757 22.7349 10.7726 23.3388 12.7847 23.3388C19.3233 23.3388 22.8976 17.6974 22.8976 12.8077C22.8976 12.6442 22.8923 12.487 22.8853 12.3298C23.5902 11.8088 24.1826 11.1572 24.6656 10.4087H24.6663Z" fill="black"/>
</svg>

<svg xmlns="http://www.w3.org/2000/svg" width="32" height="33" fill="none"  xmlns:v="https://vecta.io/nano"><path d="M25.016 4.005H6.984C5.336 4.005 4 5.341 4 6.989v18.032c0 1.648 1.336 2.984 2.984 2.984h18.032c1.648 0 2.984-1.336 2.984-2.984V6.989c0-1.648-1.336-2.984-2.984-2.984z" fill="#fff"/><path d="M24.666 10.409c-.645.294-1.332.49-2.047.584a3.66 3.66 0 0 0 1.563-2.046 6.94 6.94 0 0 1-2.253.896c-.652-.723-1.581-1.171-2.596-1.171-1.967 0-3.551 1.663-3.551 3.701 0 .293.025.576.083.845-2.954-.151-5.568-1.626-7.324-3.872a3.85 3.85 0 0 0-.486 1.871 3.75 3.75 0 0 0 1.578 3.076c-.572-.012-1.132-.185-1.606-.456v.041c0 1.798 1.233 3.292 2.847 3.636-.289.083-.605.122-.932.122a3.04 3.04 0 0 1-.673-.063c.461 1.465 1.767 2.542 3.32 2.577-1.209.986-2.743 1.579-4.406 1.579-.291 0-.57-.013-.85-.051a9.72 9.72 0 0 0 5.452 1.661c6.539 0 10.113-5.641 10.113-10.531a10.64 10.64 0 0 0-.012-.478c.705-.521 1.297-1.173 1.78-1.921h.001z" fill="#000"/></svg>
